ix/video-remove_outline.svg

<svg viewBox="0 0 24 24" fill="none" xmlns="http://www.w3.org/2000/svg" height="1em" width="1em">
  <path d="M15 22.75H9C3.57 22.75 1.25 20.43 1.25 15V9C1.25 3.57 3.57 1.25 9 1.25H15C20.43 1.25 22.75 3.57 22.75 9V15C22.75 15.25 22.75 15.5 22.73 15.74C22.7 16.06 22.48 16.32 22.17 16.4C21.86 16.48 21.54 16.36 21.36 16.09C21.35 16.08 21.29 16.01 21.28 15.99C20.59 15.2 19.58 14.75 18.51 14.75C17.49 14.75 16.53 15.15 15.82 15.88C15.14 16.58 14.76 17.51 14.76 18.5C14.76 19.17 14.95 19.84 15.3 20.43C15.49 20.75 15.73 21.03 16 21.27L16.12 21.38C16.35 21.57 16.46 21.9 16.37 22.19C16.28 22.48 16.04 22.7 15.74 22.73C15.51 22.75 15.25 22.75 15 22.75ZM9 2.75C4.39 2.75 2.75 4.39 2.75 9V15C2.75 19.61 4.39 21.25 9 21.25H14.03C14.02 21.24 14.01 21.22 14 21.21C13.5 20.38 13.24 19.45 13.24 18.5C13.24 17.12 13.77 15.82 14.72 14.84C15.7 13.83 17.08 13.25 18.49 13.25C19.48 13.25 20.43 13.52 21.24 14.03V9C21.24 4.39 19.6 2.75 14.99 2.75H9Z" fill="#292D32"/>
  <path d="M21.4795 7.85986H2.51953C2.10953 7.85986 1.76953 7.51986 1.76953 7.10986C1.76953 6.69986 2.10953 6.35986 2.51953 6.35986H21.4795C21.8895 6.35986 22.2295 6.69986 22.2295 7.10986C22.2295 7.51986 21.8995 7.85986 21.4795 7.85986Z" fill="#292D32"/>
  <path d="M8.51953 7.71985C8.10953 7.71985 7.76953 7.37985 7.76953 6.96985V2.10986C7.76953 1.69986 8.10953 1.35986 8.51953 1.35986C8.92953 1.35986 9.26953 1.69986 9.26953 2.10986V6.96985C9.26953 7.37985 8.92953 7.71985 8.51953 7.71985Z" fill="#292D32"/>
  <path d="M15.4805 7.2699C15.0705 7.2699 14.7305 6.9299 14.7305 6.5199V2.10986C14.7305 1.69986 15.0705 1.35986 15.4805 1.35986C15.8905 1.35986 16.2305 1.69986 16.2305 2.10986V6.5199C16.2305 6.9399 15.9005 7.2699 15.4805 7.2699Z" fill="#292D32"/>
  <path d="M18.4998 23.75C17.3198 23.75 16.1698 23.35 15.2698 22.61C15.2398 22.59 15.2098 22.57 15.1898 22.55C15.0998 22.47 15.0398 22.43 14.9898 22.37C14.6398 22.07 14.2998 21.67 14.0198 21.21C13.5198 20.38 13.2598 19.45 13.2598 18.5C13.2598 17.12 13.7898 15.82 14.7398 14.84C15.7198 13.83 17.0998 13.25 18.5098 13.25C20.0198 13.25 21.4398 13.89 22.4198 15.01C22.4698 15.05 22.5498 15.15 22.6198 15.25C23.3398 16.12 23.7698 17.29 23.7698 18.5C23.7698 18.94 23.7198 19.35 23.6198 19.74C23.4998 20.24 23.2998 20.73 23.0198 21.2C22.0498 22.78 20.3298 23.75 18.4998 23.75ZM16.0898 21.35C16.1098 21.37 16.1398 21.38 16.1598 21.4C16.8198 21.95 17.6198 22.24 18.4998 22.24C19.8098 22.24 21.0298 21.54 21.7098 20.42C21.9098 20.09 22.0498 19.73 22.1398 19.36C22.2098 19.08 22.2498 18.8 22.2498 18.49C22.2498 17.63 21.9498 16.8 21.3998 16.14C21.3898 16.13 21.2798 16 21.2698 15.98C20.5798 15.19 19.5698 14.74 18.4998 14.74C17.4798 14.74 16.5198 15.14 15.8098 15.87C15.1298 16.57 14.7498 17.5 14.7498 18.49C14.7498 19.16 14.9398 19.83 15.2898 20.42C15.4798 20.74 15.7198 21.02 15.9898 21.26L16.0898 21.35Z" fill="#292D32"/>
  <path d="M19.6998 20.4302C19.5098 20.4302 19.3198 20.3602 19.1698 20.2102L16.7898 17.8302C16.4998 17.5402 16.4998 17.0602 16.7898 16.7702C17.0798 16.4802 17.5598 16.4802 17.8498 16.7702L20.2298 19.1502C20.5198 19.4402 20.5198 19.9202 20.2298 20.2102C20.0898 20.3502 19.8898 20.4302 19.6998 20.4302Z" fill="#292D32"/>
  <path d="M17.3002 20.4498C17.1102 20.4498 16.9202 20.3798 16.7702 20.2298C16.4802 19.9398 16.4802 19.4598 16.7702 19.1698L19.1502 16.7898C19.4402 16.4998 19.9202 16.4998 20.2102 16.7898C20.5002 17.0798 20.5002 17.5598 20.2102 17.8498L17.8302 20.2298C17.6802 20.3798 17.4902 20.4498 17.3002 20.4498Z" fill="#292D32"/>
</svg>

<svg viewBox="0 0 24 24" fill="none" xmlns="http://www.w3.org/2000/svg" height="1em" width="1em">
  <path d="M15 22.75H9c-5.43 0-7.75-2.32-7.75-7.75V9c0-5.43 2.32-7.75 7.75-7.75h6c5.43 0 7.75 2.32 7.75 7.75v6c0 .25 0 .5-.02.74-.03.32-.25.58-.56.66a.742.742 0 0 1-.81-.31.874.874 0 0 1-.08-.1c-.69-.79-1.7-1.24-2.77-1.24a3.741 3.741 0 0 0-3.21 5.68c.19.32.43.6.7.84l.12.11c.23.19.34.52.25.81a.75.75 0 0 1-.63.54c-.23.02-.49.02-.74.02Zm-6-20C4.39 2.75 2.75 4.39 2.75 9v6c0 4.61 1.64 6.25 6.25 6.25h5.03c-.01-.01-.02-.03-.03-.04-.5-.83-.76-1.76-.76-2.71 0-1.38.53-2.68 1.48-3.66a5.29 5.29 0 0 1 3.77-1.59c.99 0 1.94.27 2.75.78V9c0-4.61-1.64-6.25-6.25-6.25H9Z" fill="#292D32"/>
  <path d="M21.48 7.86H2.52c-.41 0-.75-.34-.75-.75s.34-.75.75-.75h18.96a.749.749 0 1 1 0 1.5Z" fill="#292D32"/>
  <path d="M8.52 7.72c-.41 0-.75-.34-.75-.75V2.11c0-.41.34-.75.75-.75s.75.34.75.75v4.86c0 .41-.34.75-.75.75Zm6.96-.45c-.41 0-.75-.34-.75-.75V2.11c0-.41.34-.75.75-.75s.75.34.75.75v4.41c0 .42-.33.75-.75.75Zm3.02 16.48c-1.18 0-2.33-.4-3.23-1.14a.555.555 0 0 1-.08-.06c-.09-.08-.15-.12-.2-.18-.35-.3-.69-.7-.97-1.16-.5-.83-.76-1.76-.76-2.71 0-1.38.53-2.68 1.48-3.66a5.29 5.29 0 0 1 3.77-1.59c1.51 0 2.93.64 3.91 1.76.05.04.13.14.2.24.72.87 1.15 2.04 1.15 3.25 0 .44-.05.85-.15 1.24-.12.5-.32.99-.6 1.46a5.328 5.328 0 0 1-4.52 2.55Zm-2.41-2.4c.02.02.05.03.07.05.66.55 1.46.84 2.34.84 1.31 0 2.53-.7 3.21-1.82.2-.33.34-.69.43-1.06.07-.28.11-.56.11-.87 0-.86-.3-1.69-.85-2.35-.01-.01-.12-.14-.13-.16-.69-.79-1.7-1.24-2.77-1.24a3.741 3.741 0 0 0-3.21 5.68c.19.32.43.6.7.84l.1.09Z" fill="#292D32"/>
  <path d="M19.7 20.43c-.19 0-.38-.07-.53-.22l-2.38-2.38a.754.754 0 0 1 0-1.06c.29-.29.77-.29 1.06 0l2.38 2.38c.29.29.29.77 0 1.06-.14.14-.34.22-.53.22Z" fill="#292D32"/>
  <path d="M17.3 20.45c-.19 0-.38-.07-.53-.22a.754.754 0 0 1 0-1.06l2.38-2.38c.29-.29.77-.29 1.06 0 .29.29.29.77 0 1.06l-2.38 2.38c-.15.15-.34.22-.53.22Z" fill="#292D32"/>
</svg>
